packages/icons/src/SVG/favorite-solid.svg

<svg width="12" height="12" viewBox="0 0 12 12" >
<path d="M6 0L4.21156 4.04531L0 4.58356L3.10634 7.62209L2.29172 12L5.99997 9.5L9.70822 12L8.89359 7.62209L11.9999 4.58356L7.78837 4.04531L6 0Z" />
</svg>

<!-- Generated by IcoMoon.io -->
<svg version="1.1" xmlns="http://www.w3.org/2000/svg" width="12" height="12" viewBox="0 0 12 12">
<title>favorite-solid</title>
<path d="M6 0l-1.788 4.045-4.212 0.538 3.106 3.039-0.815 4.378 3.708-2.5 3.708 2.5-0.815-4.378 3.106-3.039-4.212-0.538-1.788-4.045z"></path>
</svg>
